; generated by Slic3r 0.9.9-dev on 2013-11-03 at 19:31:43

; layer_height = 0.4
; perimeters = 3
; top_solid_layers = 3
; bottom_solid_layers = 3
; fill_density = 0.1
; perimeter_speed = 30
; infill_speed = 60
; travel_speed = 130
; nozzle_diameter = 0.4
; filament_diameter = 1.75
; extrusion_multiplier = 1
; perimeters extrusion width = 0.42mm
; infill extrusion width = 0.42mm
; solid infill extrusion width = 0.42mm
; top infill extrusion width = 0.42mm
; first layer extrusion width = 0.70mm

G21 ; set units to millimeters
M107
M104 S190 ; set temperature
G28 ; home all axes
G1 Z5 F5000 ; lift nozzle
M92 X91.29  ; calibrate X by Thalib
M92 Y94.51  ; calibrate Y by Thalib
M109 S190 ; wait for temperature to be reached
G90 ; use absolute coordinates
G92 E0
M82 ; use absolute distances for extrusion
G1 F1800.000 E-1.00000
G92 E0
G1 Z0.350 F7800.000
G1 X28.712 Y23.027
G1 F1800.000 E1.00000
G1 X28.952 Y22.727 F540.000 E1.03553
G1 X30.682 Y20.727 E1.28012
G1 X32.282 Y19.127 E1.48940
G1 X34.282 Y17.397 E1.73398
G1 X34.582 Y17.157 E1.76952
G1 X36.412 Y15.807 E1.97985
G1 X36.752 Y15.577 E2.01782
G1 X38.682 Y14.377 E2.22801
G1 X39.032 Y14.177 E2.26530
G1 X41.512 Y12.907 E2.52300
G1 X43.432 Y12.077 E2.71647
G1 X45.952 Y11.197 E2.96335
G1 X48.522 Y10.517 E3.20923
G1 X51.112 Y10.027 E3.45303
G1 X51.522 Y9.967 E3.49136
G1 X53.782 Y9.737 E3.70147
G1 X56.812 Y9.647 E3.98184
G1 X59.452 Y9.787 E4.22636
G1 X61.712 Y10.067 E4.43698
G1 X62.092 Y10.137 E4.47272
G1 X64.662 Y10.667 E4.71543
G1 X66.852 Y11.277 E4.92569
G1 X69.722 Y12.327 E5.20835
G1 X71.792 Y13.267 E5.41862
G1 X72.132 Y13.437 E5.45378
G1 X74.462 Y14.727 E5.70011
G1 X76.362 Y15.967 E5.90995
G1 X78.472 Y17.567 E6.15487
G1 X80.462 Y19.317 E6.39998
G1 X80.742 Y19.587 E6.43595
G1 X82.572 Y21.507 E6.68128
G1 X84.262 Y23.567 E6.92772
G1 X85.572 Y25.427 E7.13814
G1 X86.932 Y27.687 E7.38210
G1 X88.132 Y30.047 E7.62697
G1 X88.302 Y30.407 E7.66380
G1 X89.162 Y32.517 E7.87454
G1 X89.302 Y32.897 E7.91200
G1 X90.042 Y35.227 E8.13811
G1 X90.702 Y37.987 E8.40058
G1 X91.112 Y40.617 E8.64677
G1 X91.302 Y42.887 E8.85746
G1 X91.332 Y45.527 E9.10165
G1 X91.322 Y45.907 E9.13681
G1 X91.132 Y48.587 E9.38531
G1 X90.712 Y51.357 E9.64443
G1 X90.262 Y53.397 E9.83765
G1 X89.512 Y55.927 E10.08172
G1 X89.382 Y56.317 E10.11974
G1 X88.412 Y58.777 E10.36432
G1 X87.432 Y60.827 E10.57448
G1 X86.122 Y63.137 E10.82010
G1 X85.922 Y63.457 E10.85500
G1 X84.422 Y65.657 E11.10127
G1 X83.002 Y67.437 E11.31188
G1 X82.732 Y67.747 E11.34990
G1 X81.062 Y69.527 E11.57565
G1 X78.982 Y71.467 E11.83872
G1 X77.202 Y72.877 E12.04875
G1 X76.892 Y73.097 E12.08391
G1 X74.692 Y74.567 E12.32863
G1 X72.722 Y75.697 E12.53868
G1 X72.382 Y75.877 E12.57427
G1 X70.332 Y76.857 E12.78442
G1 X67.592 Y77.927 E13.05649
G1 X17.532 Y94.107 E17.92242
G1 X17.072 Y94.237 E17.96664
G1 X16.592 Y94.317 E18.01164
G1 X16.352 Y94.337 E18.03392
G1 X15.862 Y94.347 E18.07925
G1 X15.142 Y94.287 E18.14607
G1 X14.432 Y94.117 E18.21360
G1 X13.752 Y93.847 E18.28127
G1 X13.122 Y93.477 E18.34884
G1 X12.732 Y93.187 E18.39379
G1 X12.372 Y92.867 E18.43834
G1 X8.132 Y88.627 E18.99294
G1 X7.812 Y88.267 E19.03749
G1 X7.522 Y87.877 E19.08244
G1 X7.152 Y87.247 E19.15002
G1 X6.882 Y86.567 E19.21769
G1 X6.762 Y86.097 E19.26255
G1 X6.682 Y85.617 E19.30756
G1 X6.652 Y85.137 E19.35205
G1 X6.682 Y84.407 E19.41962
G1 X6.762 Y83.927 E19.46463
G1 X6.892 Y83.467 E19.50884
G1 X22.722 Y34.487 E24.26977
G1 X23.492 Y32.247 E24.48885
G1 X23.632 Y31.877 E24.52544
G1 X24.532 Y29.797 E24.73506
G1 X25.742 Y27.457 E24.97871
G1 X27.132 Y25.197 E25.22411
G1 X27.362 Y24.857 E25.26208
G1 X28.656 Y23.104 E25.46359
G1 X29.222 Y23.407 F7800.000
G1 X31.132 Y21.177 F540.000 E25.73516
G1 X32.732 Y19.577 E25.94444
G1 X34.962 Y17.667 E26.21601
G1 X37.082 Y16.117 E26.45891
G1 X39.012 Y14.917 E26.66911
G1 X39.322 Y14.747 E26.70181
G1 X41.762 Y13.497 E26.95537
G1 X43.682 Y12.667 E27.14884
G1 X44.002 Y12.537 E27.18079
G1 X46.152 Y11.797 E27.39109
G1 X48.682 Y11.127 E27.63316
G1 X51.232 Y10.647 E27.87315
G1 X53.842 Y10.367 E28.11594
G1 X56.422 Y10.277 E28.35471
G1 X59.372 Y10.417 E28.62787
G1 X61.632 Y10.697 E28.83849
G1 X61.962 Y10.757 E28.86952
G1 X64.492 Y11.277 E29.10841
G1 X66.682 Y11.887 E29.31868
G1 X69.152 Y12.777 E29.56151
G1 X71.532 Y13.847 E29.80286
G1 X74.112 Y15.257 E30.07480
G1 X76.012 Y16.497 E30.28464
G1 X78.092 Y18.077 E30.52623
G1 X80.032 Y19.787 E30.76542
G1 X80.282 Y20.027 E30.79747
G1 X82.082 Y21.907 E31.03821
G1 X83.532 Y23.657 E31.24841
G1 X83.742 Y23.937 E31.28078
G1 X85.232 Y26.077 E31.52196
G1 X86.552 Y28.297 E31.76085
G1 X87.572 Y30.327 E31.97097
G1 X88.572 Y32.757 E32.21401
G1 X88.692 Y33.087 E32.24649
G1 X89.522 Y35.727 E32.50245
G1 X90.012 Y37.757 E32.69560
G1 X90.432 Y40.327 E32.93645
G1 X90.682 Y43.267 E33.20936
G1 X90.692 Y45.857 E33.44891
G1 X90.542 Y48.127 E33.65932
G1 X90.502 Y48.487 E33.69282
G1 X90.082 Y51.217 E33.94829
G1 X89.552 Y53.567 E34.17111
G1 X88.902 Y55.747 E34.38151
G1 X88.792 Y56.087 E34.41456
G1 X87.972 Y58.197 E34.62394
G1 X86.702 Y60.847 E34.89573
G1 X85.402 Y63.097 E35.13607
G1 X84.132 Y64.977 E35.34591
G1 X82.502 Y67.037 E35.58888
G1 X82.262 Y67.307 E35.62229
G1 X80.392 Y69.297 E35.87486
G1 X78.862 Y70.727 E36.06856
G1 X78.582 Y70.967 E36.10267
G1 X76.532 Y72.577 E36.34376
G1 X74.652 Y73.847 E36.55360
G1 X72.402 Y75.147 E36.79394
G1 X69.752 Y76.417 E37.06573
G1 X67.402 Y77.317 E37.29848
G1 X17.132 Y93.567 E42.18489
G1 X16.692 Y93.657 E42.22643
G1 X16.032 Y93.717 E42.28773
G1 X15.812 Y93.717 E42.30807
G1 X15.362 Y93.677 E42.34986
G1 X14.932 Y93.597 E42.39031
G1 X14.292 Y93.387 E42.45261
G1 X13.702 Y93.097 E42.51342
G1 X13.332 Y92.847 E42.55472
G1 X12.982 Y92.567 E42.59617
G1 X8.582 Y88.177 E43.17105
G1 X8.292 Y87.847 E43.21168
G1 X8.022 Y87.487 E43.25330
G1 X7.802 Y87.107 E43.29391
G1 X7.612 Y86.707 E43.33487
G1 X7.402 Y86.067 E43.39717
G1 X7.322 Y85.637 E43.43763
G1 X7.282 Y85.187 E43.47941
G1 X7.312 Y84.527 E43.54052
G1 X7.382 Y84.087 E43.58173
G1 X7.432 Y83.867 E43.60259
G1 X23.352 Y34.597 E48.39160
G1 X24.092 Y32.447 E48.60191
G1 X25.122 Y30.047 E48.84347
G1 X26.472 Y27.457 E49.11361
G1 X27.672 Y25.527 E49.32381
G1 X29.166 Y23.484 E49.55789
G1 X29.732 Y23.787 F7800.000
G1 X29.912 Y23.557 F540.000 E49.58490
G1 X31.582 Y21.627 E49.82096
G1 X33.182 Y20.027 E50.03024
G1 X35.112 Y18.357 E50.26630
G1 X37.422 Y16.657 E50.53157
G1 X39.612 Y15.307 E50.76952
G1 X41.782 Y14.187 E50.99538
G1 X43.942 Y13.247 E51.21326
G1 X44.212 Y13.137 E51.24022
G1 X46.362 Y12.397 E51.45053
G1 X48.842 Y11.747 E51.68765
G1 X51.342 Y11.277 E51.92293
G1 X54.172 Y10.987 E52.18605
G1 X56.752 Y10.917 E52.42477
G1 X59.012 Y11.027 E52.63404
G1 X59.292 Y11.057 E52.66009
G1 X61.842 Y11.377 E52.89779
G1 X64.062 Y11.827 E53.10730
G1 X66.512 Y12.507 E53.34247
G1 X66.802 Y12.597 E53.37055
G1 X68.932 Y13.377 E53.58035
G1 X71.272 Y14.427 E53.81757
G1 X73.512 Y15.647 E54.05349
G1 X75.902 Y17.197 E54.31696
G1 X77.702 Y18.577 E54.52674
G1 X79.832 Y20.467 E54.79012
G1 X81.402 Y22.097 E54.99944
G1 X83.222 Y24.297 E55.26352
G1 X84.532 Y26.157 E55.47394
G1 X84.682 Y26.397 E55.50012
G1 X85.982 Y28.587 E55.73567
G1 X87.002 Y30.617 E55.94580
G1 X87.982 Y32.997 E56.18386
G1 X88.902 Y35.877 E56.46349
G1 X89.452 Y38.187 E56.68312
G1 X89.812 Y40.427 E56.89296
G1 X90.032 Y42.987 E57.13061
G1 X90.062 Y45.817 E57.39237
G1 X89.912 Y48.087 E57.60278
G1 X89.462 Y51.077 E57.88244
G1 X88.942 Y53.387 E58.10144
G1 X88.292 Y55.567 E58.31185
G1 X87.262 Y58.227 E58.57567
G1 X86.152 Y60.537 E58.81271
G1 X85.022 Y62.507 E59.02277
G1 X83.422 Y64.867 E59.28648
G1 X81.802 Y66.877 E59.52525
G1 X79.952 Y68.837 E59.77454
G1 X78.192 Y70.467 E59.99641
G1 X76.412 Y71.877 E60.20644
G1 X76.172 Y72.047 E60.23364
G1 X74.062 Y73.467 E60.46887
G1 X72.092 Y74.597 E60.67893
G1 X69.782 Y75.707 E60.91597
G1 X67.202 Y76.717 E61.17223
G1 X17.142 Y92.897 E66.03816
G1 X16.742 Y93.007 E66.07653
G1 X16.322 Y93.067 E66.11577
G1 X16.122 Y93.077 E66.13429
G1 X15.492 Y93.047 E66.19263
G1 X15.082 Y92.977 E66.23110
G1 X14.682 Y92.857 E66.26972
G1 X14.112 Y92.597 E66.32767
G1 X13.752 Y92.367 E66.36718
G1 X13.272 Y91.967 E66.42497
G1 X9.032 Y87.727 E66.97957
G1 X8.752 Y87.407 E67.01890
G1 X8.512 Y87.067 E67.05739
G1 X8.312 Y86.707 E67.09548
G1 X8.142 Y86.317 E67.13483
G1 X8.022 Y85.917 E67.17346
G1 X7.952 Y85.507 E67.21193
G1 X7.922 Y85.087 E67.25087
G1 X7.932 Y84.677 E67.28881
G1 X7.992 Y84.257 E67.32805
G1 X8.102 Y83.857 E67.36642
G1 X23.952 Y34.807 E72.13408
G1 X24.692 Y32.657 E72.34438
G1 X25.822 Y30.047 E72.60743
G1 X26.872 Y28.037 E72.81718
G1 X28.212 Y25.867 E73.05307
G1 X29.676 Y23.864 E73.28252
G1 X30.242 Y24.157 F7800.000
G1 X32.032 Y22.077 F540.000 E73.53634
G1 X33.632 Y20.477 E73.74562
G1 X35.712 Y18.687 E73.99943
G1 X37.752 Y17.197 E74.23308
G1 X39.682 Y15.997 E74.44328
G1 X39.902 Y15.877 E74.46646
G1 X42.272 Y14.657 E74.71300
G1 X44.192 Y13.827 E74.90647
G1 X46.572 Y12.997 E75.13960
G1 X49.002 Y12.357 E75.37201
G1 X51.462 Y11.897 E75.60348
G1 X54.192 Y11.617 E75.85731
G1 X56.462 Y11.547 E76.06736
G1 X59.212 Y11.687 E76.32204
G1 X61.712 Y12.007 E76.55516
G1 X64.152 Y12.507 E76.78552
G1 X66.342 Y13.117 E76.99579
G1 X68.712 Y13.977 E77.22898
G1 X71.222 Y15.107 E77.48357
G1 X73.212 Y16.197 E77.69343
G1 X75.322 Y17.567 E77.92612
G1 X77.492 Y19.227 E78.17881
G1 X79.192 Y20.737 E78.38912
G1 X79.372 Y20.917 E78.41266
G1 X81.102 Y22.717 E78.64357
G1 X82.702 Y24.667 E78.87687
G1 X84.142 Y26.727 E79.10934
G1 X85.412 Y28.867 E79.33950
G1 X86.432 Y30.897 E79.54963
G1 X87.482 Y33.477 E79.80726
G1 X88.282 Y36.017 E80.05356
G1 X88.822 Y38.297 E80.27027
G1 X89.212 Y40.767 E80.50156
G1 X89.402 Y43.037 E80.71225
G1 X89.432 Y45.537 E80.94349
G1 X89.272 Y48.047 E81.17611
G1 X88.842 Y50.937 E81.44636
G1 X88.342 Y53.207 E81.66134
G1 X87.692 Y55.387 E81.87174
G1 X86.692 Y57.957 E82.12681
G1 X85.602 Y60.217 E82.35888
G1 X84.472 Y62.187 E82.56893
G1 X83.072 Y64.267 E82.80083
G1 X81.342 Y66.437 E83.05751
G1 X79.672 Y68.217 E83.28326
G1 X77.992 Y69.797 E83.49657
G1 X75.822 Y71.517 E83.75268
G1 X73.742 Y72.917 E83.98458
G1 X71.772 Y74.047 E84.19463
G1 X69.512 Y75.137 E84.42670
G1 X67.012 Y76.107 E84.67472
G1 X16.762 Y92.347 E89.55909
G1 X16.382 Y92.417 E89.59482
G1 X15.992 Y92.447 E89.63100
G1 X15.612 Y92.427 E89.66620
G1 X15.232 Y92.357 E89.70194
G1 X14.862 Y92.247 E89.73764
G1 X14.502 Y92.087 E89.77407
G1 X14.172 Y91.887 E89.80976
G1 X13.862 Y91.647 E89.84603
G1 X9.352 Y87.137 E90.43594
G1 X9.112 Y86.827 E90.47220
G1 X8.912 Y86.497 E90.50789
G1 X8.752 Y86.137 E90.54433
G1 X8.642 Y85.767 E90.58003
G1 X8.572 Y85.387 E90.61577
G1 X8.552 Y85.007 E90.65097
G1 X8.582 Y84.617 E90.68714
G1 X8.652 Y84.237 E90.72288
G1 X24.552 Y35.017 E95.50692
G1 X25.292 Y32.867 E95.71723
G1 X26.282 Y30.557 E95.94968
G1 X27.432 Y28.337 E96.18092
G1 X28.892 Y25.987 E96.43681
G1 X30.186 Y24.234 E96.63832
G1 X30.752 Y24.537 F7800.000
G1 X32.352 Y22.667 F540.000 E96.86595
G1 X34.222 Y20.797 E97.11055
G1 X36.092 Y19.197 E97.33817
G1 X38.092 Y17.737 E97.56720
G1 X40.192 Y16.437 E97.79564
G1 X42.362 Y15.317 E98.02150
G1 X44.442 Y14.417 E98.23112
G1 X46.962 Y13.547 E98.47769
G1 X49.342 Y12.937 E98.70494
G1 X51.772 Y12.497 E98.93335
G1 X54.032 Y12.267 E99.14345
G1 X56.482 Y12.187 E99.37018
G1 X58.942 Y12.297 E99.59793
G1 X61.392 Y12.597 E99.82623
G1 X63.982 Y13.117 E100.07056
G1 X66.362 Y13.787 E100.29925
G1 X68.492 Y14.567 E100.50904
G1 X70.912 Y15.667 E100.75491
G1 X73.072 Y16.857 E100.98300
G1 X75.132 Y18.207 E101.21080
G1 X76.932 Y19.587 E101.42058
G1 X78.912 Y21.357 E101.66622
G1 X80.612 Y23.127 E101.89321
G1 X82.182 Y25.037 E102.12189
G1 X83.592 Y27.057 E102.34973
G1 X84.842 Y29.157 E102.57577
G1 X85.862 Y31.187 E102.78590
G1 X86.872 Y33.667 E103.03357
G1 X87.662 Y36.167 E103.27606
G1 X88.192 Y38.397 E103.48806
G1 X88.572 Y40.827 E103.71555
G1 X88.772 Y43.287 E103.94383
G1 X88.792 Y45.737 E104.17044
G1 X88.642 Y48.007 E104.38085
G1 X88.222 Y50.807 E104.64272
G1 X87.732 Y53.027 E104.85299
G1 X87.082 Y55.207 E105.06340
G1 X86.192 Y57.507 E105.29150
G1 X85.052 Y59.907 E105.53724
G1 X83.922 Y61.877 E105.74730
G1 X82.432 Y64.077 E105.99305
G1 X81.012 Y65.857 E106.20366
G1 X79.092 Y67.907 E106.46344
G1 X77.562 Y69.337 E106.65714
G1 X75.462 Y70.997 E106.90472
G1 X73.432 Y72.367 E107.13124
G1 X71.462 Y73.497 E107.34129
G1 X69.062 Y74.637 E107.58704
G1 X66.812 Y75.507 E107.81016
G1 X16.752 Y91.687 E112.67609
G1 X16.582 Y91.737 E112.69248
G1 X16.242 Y91.797 E112.72441
G1 X16.072 Y91.807 E112.74017
G1 X15.722 Y91.797 E112.77255
G1 X15.372 Y91.737 E112.80539
G1 X15.212 Y91.697 E112.82065
G1 X14.882 Y91.567 E112.85345
G1 X14.582 Y91.397 E112.88535
G1 X14.302 Y91.187 E112.91772
G1 X9.812 Y86.697 E113.50502
G1 X9.602 Y86.417 E113.53739
G1 X9.432 Y86.117 E113.56928
G1 X9.302 Y85.787 E113.60209
G1 X9.262 Y85.627 E113.61734
G1 X9.222 Y85.447 E113.63440
G1 X9.192 Y85.107 E113.66597
G1 X9.202 Y84.757 E113.69835
G1 X9.262 Y84.417 E113.73028
G1 X25.142 Y35.267 E118.50760
G1 X25.902 Y33.067 E118.72288
G1 X26.952 Y30.637 E118.96771
G1 X28.092 Y28.467 E119.19443
G1 X29.402 Y26.367 E119.42335
G1 X30.696 Y24.614 E119.62487
G1 X31.272 Y24.917 F7800.000
G1 X32.932 Y22.977 F540.000 E119.86102
G1 X34.532 Y21.377 E120.07030
G1 X36.362 Y19.797 E120.29392
G1 X38.422 Y18.277 E120.53070
G1 X40.352 Y17.077 E120.74090
G1 X42.772 Y15.827 E120.99283
G1 X44.692 Y14.997 E121.18629
G1 X47.122 Y14.157 E121.42409
G1 X49.322 Y13.587 E121.63429
G1 X51.692 Y13.147 E121.85724
G1 X54.232 Y12.887 E122.09340
G1 X56.502 Y12.817 E122.30345
G1 X59.052 Y12.947 E122.53961
G1 X61.462 Y13.247 E122.76423
G1 X63.812 Y13.727 E122.98608
G1 X66.002 Y14.337 E123.19634
G1 X68.412 Y15.217 E123.43364
G1 X70.482 Y16.157 E123.64391
G1 X72.722 Y17.387 E123.88027
G1 X74.622 Y18.627 E124.09012
G1 X76.652 Y20.177 E124.32635
G1 X78.352 Y21.687 E124.53665
G1 X80.122 Y23.527 E124.77279
G1 X81.662 Y25.397 E124.99685
G1 X83.052 Y27.377 E125.22061
G1 X84.212 Y29.317 E125.42967
G1 X85.362 Y31.607 E125.66668
G1 X86.272 Y33.857 E125.89116
G1 X87.012 Y36.187 E126.11727
G1 X87.532 Y38.347 E126.32276
G1 X87.942 Y40.877 E126.55982
G1 X88.132 Y43.147 E126.77050
G1 X88.162 Y45.547 E126.99250
G1 X87.992 Y48.117 E127.23072
G1 X87.632 Y50.537 E127.45701
G1 X87.122 Y52.837 E127.67491
G1 X86.422 Y55.167 E127.89993
G1 X85.602 Y57.277 E128.10930
G1 X84.562 Y59.457 E128.33270
G1 X83.292 Y61.677 E128.56926
G1 X82.022 Y63.557 E128.77910
G1 X80.512 Y65.457 E129.00357
G1 X78.652 Y67.437 E129.25483
G1 X77.002 Y68.967 E129.46295
G1 X75.112 Y70.467 E129.68613
G1 X73.232 Y71.737 E129.89597
G1 X71.012 Y73.007 E130.13252
G1 X68.832 Y74.047 E130.35592
G1 X66.722 Y74.867 E130.56530
G1 X16.562 Y91.077 E135.44088
G1 X16.272 Y91.147 E135.46848
G1 X15.972 Y91.177 E135.49636
G1 X15.522 Y91.117 E135.53835
G1 X15.242 Y91.027 E135.56555
G1 X14.972 Y90.897 E135.59327
G1 X14.622 Y90.617 E135.63473
G1 X10.282 Y86.267 E136.20306
G1 X10.102 Y86.027 E136.23081
G1 X10.032 Y85.897 E136.24447
G1 X9.882 Y85.477 E136.28572
G1 X9.822 Y85.027 E136.32770
G1 X9.882 Y84.587 E136.36878
G1 X25.752 Y35.457 E141.14405
G1 X26.552 Y33.137 E141.37102
G1 X27.452 Y31.057 E141.58064
G1 X28.632 Y28.797 E141.81645
G1 X29.832 Y26.867 E142.02665
G1 X31.216 Y24.994 E142.24203
G1 X31.782 Y25.297 F7800.000
G1 X33.382 Y23.427 F540.000 E142.46966
G1 X34.982 Y21.827 E142.67894
G1 X36.772 Y20.287 E142.89734
G1 X38.762 Y18.817 E143.12617
G1 X40.782 Y17.567 E143.34588
G1 X43.032 Y16.407 E143.58002
G1 X44.952 Y15.577 E143.77348
G1 X47.282 Y14.777 E144.00133
G1 X49.482 Y14.207 E144.21153
G1 X51.802 Y13.777 E144.42977
G1 X54.252 Y13.527 E144.65754
G1 X56.622 Y13.457 E144.87684
G1 X58.982 Y13.577 E145.09540
G1 X61.332 Y13.867 E145.31441
G1 X63.552 Y14.317 E145.52391
G1 X65.832 Y14.957 E145.74294
G1 X68.152 Y15.797 E145.97115
G1 X70.222 Y16.737 E146.18143
G1 X72.292 Y17.877 E146.40000
G1 X74.352 Y19.217 E146.62729
G1 X76.152 Y20.597 E146.83707
G1 X78.002 Y22.237 E147.06573
G1 X79.572 Y23.867 E147.27505
G1 X81.142 Y25.767 E147.50302
G1 X82.502 Y27.707 E147.72215
G1 X83.712 Y29.727 E147.93994
G1 X84.732 Y31.757 E148.15006
G1 X85.632 Y33.957 E148.36991
G1 X86.432 Y36.467 E148.61357
G1 X86.942 Y38.597 E148.81614
